X:1
T:125 - Redenção
T:Letra: Daniel Webster Whittle (1840-1901)
T:Trad.: Salomão Luiz Ginsburg (1867-1927)
T:Música: James McGranahan (1840-1907)
M:3/4
L:1/8
Q:1/4=90
K:C
V:1
G GE | "C"c3B "C7"BA | "F"A3A AF | "G7"B3A "(F)"AG | "C"G3G GE | e3e dc | "F"A3c BA | "C"Ge "G7"d2 cB | "C"c3 || G AB | "Am"c3c "E7"B^G | "Am"A3A Bc | "G"d3d "D7"c^F | "G"G3G GE | "C"e3e dc | "F"A3c BA | "C"Ge "G7"d2 cB | "C"c3 |]
w: 1.~Mi-nhaal-ma, can-taao Sal-va-dor, Que te re-miu com tan-toa-mor, Que te li-vrou daes-cra-vi-dão, Seu san-gue dan-doem re-den_ção!     Na re-den-ção fir-ma-does-tou,    Meu ca-ti-vei-ro já fin-dou,               Con-ten-te, can-ta-rei lou-vor    A meu glo-rio-so Re-den_tor.
w: 2.~Lon-geeu an-da-va do meu Deus, Se-guin-do nos ca-mi-nhos meus; O Sal-va-dor me des-co-briu E com seu san-gue me re_miu.
w: 3.~Fe-liz mo-men-to quan-do vi, Na tris-te cruz, mor-rer por mim, Pra li-ber-tar-me doo-pres-sor, Meu san-toe jus-to Re-den_tor.
w: 4.~Pra mi-nha jus-ti-fi-ca-ção Oes-for-ço meu foi to-do vão; Pe-ran-te Deus só tem va-lor O san-gue do meu Re-mi_dor.
w: 5.~Vem, al-mao-pres-sa, des-can-sar Na re-den-ção tão sin-gu-lar; Je-sus ga-ran-tea sal-va-ção, Seu san-gue va-lea re-den_ção.
W: 
W:
W: 1. Minha alma, canta ao Salvador,
W: Que te remiu com tanto amor,
W: Que te livrou da escravidão,
W: Seu sangue dando em redenção!
W: 
W:    (Estribilho)
W:    Na redenção firmado estou,
W:    Meu cativeiro já findou,           
W:    Contente, cantarei louvor
W:    A meu glorioso Redentor.
W: 
W: 2. Longe eu andava do meu Deus,
W: Seguindo nos caminhos meus;
W: O Salvador me descobriu
W: E com seu sangue me remiu.
W: 
W:
W:
W: 3. Feliz momento quando vi,
W: Na triste cruz, morrer por mim,
W: Pra libertar-me do opressor,
W: Meu santo e justo Redentor.
W: 
W: 4. Pra minha justificação
W: O esforço meu foi todo vão;
W: Perante Deus só tem valor
W: O sangue do meu Remidor.
W: 
W: 5. Vem, alma opressa, descansar
W: Na redenção tão singular;
W: Jesus garante a salvação,
W: Seu sangue vale a redenção.
W: 
W: 





